artwork/resources/intui/icons/shell/filetree/render-script_dark.svg

<svg width="16" height="16" viewBox="0 0 16 16" fill="none" xmlns="http://www.w3.org/2000/svg">
<path d="M7.5 11.5723V8.42765C7.5 8.23006 7.61637 8.051 7.79693 7.97075L10.7969 6.63741C10.9262 6.57995 11.0738 6.57995 11.2031 6.63741L14.2031 7.97075C14.3836 8.051 14.5 8.23006 14.5 8.42765V11.5724C14.5 11.7699 14.3836 11.949 14.2031 12.0293L11.2031 13.3626C11.0738 13.42 10.9262 13.42 10.7969 13.3626L7.79693 12.0293C7.61637 11.949 7.5 11.7699 7.5 11.5723Z" stroke="#4285F4"/>
<path fill-rule="evenodd" clip-rule="evenodd" d="M2 4C2 3.44772 2.44772 3 3 3C3.55228 3 4 3.44772 4 4H2ZM10.5 3H4.73244C4.90261 3.29417 5 3.63571 5 4V4.5V12C5 12.5523 5.44772 13 6 13H6.59925C6.76695 13.1646 6.96514 13.3011 7.18773 13.4L8.53776 14H7.5H6C4.89543 14 4 13.1046 4 12V5H1.5C1.22386 5 1 4.77614 1 4.5V4C1 2.89543 1.89543 2 3 2H10.5C11.8807 2 13 3.11929 13 4.5V5.5V5.79458L12 5.35014V4.5C12 3.67157 11.3284 3 10.5 3ZM9 13.1111V13.1111L8.74998 13H8.75003L9 13.1111Z" fill="#CED0D6"/>
<path d="M11 13.5V10M11 10L14.5 8.5M11 10L7.5 8.5" stroke="#4285F4"/>
</svg>

<svg width="16" height="16" viewBox="0 0 16 16" fill="none" xmlns="http://www.w3.org/2000/svg"><path d="M10.797 6.637a.5.5 0 0 1 .406 0l3 1.334a.5.5 0 0 1 .297.457v3.144a.5.5 0 0 1-.297.457l-3 1.334a.5.5 0 0 1-.406 0l-3-1.334a.5.5 0 0 1-.297-.457V8.428a.5.5 0 0 1 .297-.457l3-1.334z" stroke="#4285F4"/><path fill-rule="evenodd" clip-rule="evenodd" d="M2 4a1 1 0 0 1 2 0H2zm8.5-1H4.732c.17.294.268.636.268 1v8a1 1 0 0 0 1 1h.6c.167.165.365.301.588.4l1.35.6H6a2 2 0 0 1-2-2V5H1.5a.5.5 0 0 1-.5-.5V4a2 2 0 0 1 2-2h7.5A2.5 2.5 0 0 1 13 4.5v1.295l-1-.445V4.5A1.5 1.5 0 0 0 10.5 3zM9 13.111L8.75 13l.25.111z" fill="#CED0D6"/><path d="M11 13.5V10m0 0l3.5-1.5M11 10L7.5 8.5" stroke="#4285F4"/></svg>
